!! 00000] TT[WS
!!!OTL: Da huache dui
!!!ARE: Asia, China, Shanxi Dingxiang
!! Ethnic Group: Han
!! WI, 313
!!!SCT: J0379
!!!YEM: Copyright 1995, estate of Helmut Schaffrath.
**kern
*ICvox
*Ivox
!! Mixed meters:  2/4; 3/4
*M3/4
*k[f#c#g#]
*A:
{2cc#
=1
4cc#
8cc#
8ee
8cc#
8b
=2
*M2/4
4cc#
8cc#
8b
=3
4.a
8b
=4
4cc#
8ee
8cc#
=5
8b
8cc#
8b
8a
=6
4f#
8a
8e
=7
2c#}
=8
{4cc#
8ee
8cc#
=9
8b
8cc#
8b
8a
=10
8f#
8e
8f#
8a
=11
2c#
=12
4cc#
8ee
8cc#
=13
8b
8cc#
8b
8a
=14
8f#
8e
8f#
8a
=15
2c#}
=16
{2cc#
=17
*M3/4
4cc#
8cc#
8ee
8cc#
8b
=18
*M2/4
4cc#
8cc#
8b
=19
4.a
8b
=20
8cc#
8cc#
8cc#
8cc#
=21
4b
8b
8f#
=22
4a
8g#
8f#
=23
8e
8f#
2e}
==
!!!AGN: Xiao diao
!!!ONB: ESAC (Essen Associative Code) Database: CHINA
!!!AMT: irregular
!!!AIN: vox
!!!EED: Helmut Schaffrath
!!!EEV: 1.0
*-
